packages/calcite-ui-icons/icons/buffer-point-24.svg

<?xml version="1.0" encoding="UTF-8"?><svg id="icons" xmlns="http://www.w3.org/2000/svg" viewBox="0 0 24 24"><defs><style>.cls-1{fill:none;}.cls-2{fill:#231f20;}</style></defs><path class="cls-2" d="M17.5,8c-2.57812,0-4.76855,1.79395-5.33398,4.2666-.54395-.17676-1.10156-.2666-1.66602-.2666-3.03223,0-5.5,2.46777-5.5,5.5s2.46777,5.5,5.5,5.5c2.57812,0,4.76855-1.79395,5.33398-4.2666.54395.17676,1.10156.2666,1.66602.2666,3.03223,0,5.5-2.46777,5.5-5.5s-2.46777-5.5-5.5-5.5ZM17.5,18c-.62988,0-1.25195-.1377-1.84863-.40918l-.62793-.28613-.07617.68652c-.25293,2.28516-2.16504,4.00879-4.44727,4.00879-2.48145,0-4.5-2.01855-4.5-4.5s2.01855-4.5,4.5-4.5c.62988,0,1.25195.1377,1.84863.40918l.62793.28613.07617-.68652c.25293-2.28516,2.16504-4.00879,4.44727-4.00879,2.48145,0,4.5,2.01855,4.5,4.5s-2.01855,4.5-4.5,4.5ZM19,13.5c0,.82715-.67285,1.5-1.5,1.5s-1.5-.67285-1.5-1.5.67285-1.5,1.5-1.5,1.5.67285,1.5,1.5ZM12,6.5c0-3.03223-2.46777-5.5-5.5-5.5S1,3.46777,1,6.5s2.46777,5.5,5.5,5.5,5.5-2.46777,5.5-5.5ZM6.5,2c2.48145,0,4.5,2.01855,4.5,4.5s-2.01855,4.5-4.5,4.5-4.5-2.01855-4.5-4.5S4.01855,2,6.5,2ZM5,6.5c0-.82715.67285-1.5,1.5-1.5s1.5.67285,1.5,1.5-.67285,1.5-1.5,1.5-1.5-.67285-1.5-1.5ZM12,17.5c0,.82715-.67285,1.5-1.5,1.5s-1.5-.67285-1.5-1.5.67285-1.5,1.5-1.5,1.5.67285,1.5,1.5Z"/><rect class="cls-1" width="24" height="24"/></svg>

<svg xmlns="http://www.w3.org/2000/svg" viewBox="0 0 24 24"><path d="M17.5 8a5.476 5.476 0 0 0-5.334 4.267A5.37 5.37 0 0 0 10.5 12C7.468 12 5 14.468 5 17.5S7.468 23 10.5 23a5.476 5.476 0 0 0 5.334-4.267A5.37 5.37 0 0 0 17.5 19c3.032 0 5.5-2.468 5.5-5.5S20.532 8 17.5 8zm0 10a4.44 4.44 0 0 1-1.849-.41l-.628-.285-.076.686C14.694 20.276 12.782 22 10.5 22 8.019 22 6 19.981 6 17.5S8.019 13 10.5 13c.63 0 1.252.138 1.849.41l.628.285.076-.686C13.306 10.724 15.218 9 17.5 9c2.481 0 4.5 2.019 4.5 4.5S19.981 18 17.5 18zm1.5-4.5c0 .827-.673 1.5-1.5 1.5s-1.5-.673-1.5-1.5.673-1.5 1.5-1.5 1.5.673 1.5 1.5zm-7-7C12 3.468 9.532 1 6.5 1S1 3.468 1 6.5 3.468 12 6.5 12 12 9.532 12 6.5zM6.5 2C8.981 2 11 4.019 11 6.5S8.981 11 6.5 11 2 8.981 2 6.5 4.019 2 6.5 2zM5 6.5C5 5.673 5.673 5 6.5 5S8 5.673 8 6.5 7.327 8 6.5 8 5 7.327 5 6.5zm7 11c0 .827-.673 1.5-1.5 1.5S9 18.327 9 17.5s.673-1.5 1.5-1.5 1.5.673 1.5 1.5z" fill="#231f20"/><path fill="none" d="M0 0h24v24H0z"/></svg>
